!!!!SEGMENT: pl-sa--136-a-iii-36--003_marescalchi-luigi--sinfonia-ex-b-presto.krn
!!!cenid: 17xx:583
!!!COM: Marescalchi, Luigi
!!!COM-rismid: pe30002079
!!!CDT: 1745-1812
!!!CNT: Italian
!!!OPR: Sinfonia ex B
!!!OTL: Presto
!!!OMV: 003
!!!PDT:
!!!AGN: Secular
!!!SMS-siglum: PL-SA
!!!SMS-shelfmark: 136/A III 36
!!!SMS-shelfwork: 001-003 M
!!!SMS-variant:
!!!SMS-altvar:
!!!NIFC-rismid:
!!!URL-scan: http://bc.bdsandomierz.pl/dlibra/publication/1493/edition/1461/content
!!!ONB-nifc: UWAGA: części Sinfonii: Allegro, Andante, Presto
!!!AIN: 3 empty 2 oboe 2 tromp 1 viola 2 violn
!!!key:
**kern	**dynam	**kern	**kern	**dynam	**kern	**dynam	**kern	**kern	**kern	**kern	**kern	**kern
*part10	*part10	*part9	*part8	*part8	*part7	*part7	*part6	*part5	*part4	*part3	*part2	*part1
*staff10	*	*staff9	*staff8	*	*staff7	*	*staff6	*staff5	*staff4	*staff3	*staff2	*staff1
*group3	*	*group3	*group3	*	*group3	*	*group2	*group2	*group2	*group2	*group1	*group1
*Iempty	*	*Iviola	*Ivioln	*	*Ivioln	*	*Itromp	*Itromp	*Iempty	*Iempty	*Ioboe	*Ioboe
*I"Baſso	*	*I"Viola Obbligato	*I"Violino Secondo	*	*I"Violino Primo	*	*I"Tromba Secondo	*I"Troba Prima	*I"Cornu Secondo	*I"Cornu Primo	*I"Oboe Secondo Obligato	*I"Oboe Primo Obligato
*I'bc	*	*I'vla	*I'vl 2	*	*I'vl 1	*	*I'tr 2	*I'tr 1	*I'cor 2	*I'cor 1	*I'ob 2	*I'ob 1
*clefF4	*	*clefC3	*clefG2	*	*clefG2	*	*clefG2	*clefG2	*clefG2	*clefG2	*clefG2	*clefG2
*	*	*	*	*	*	*	*ITrd1c2	*ITrd1c2	*ITrd5c9	*ITrd5c9	*	*
*k[e-b-]	*	*k[e-b-]	*k[e-b-]	*	*k[e-b-]	*	*k[b-e-]	*k[b-e-]	*k[b-e-]	*k[b-e-]	*k[e-b-]	*k[e-b-]
*B-:	*	*B-:	*B-:	*	*B-:	*	*B-:	*B-:	*B-:	*B-:	*B-:	*B-:
*M2/4	*	*M2/4	*M2/4	*	*M2/4	*	*M2/4	*M2/4	*M2/4	*M2/4	*M2/4	*M2/4
*>[AABB]	*	*>[AABB]	*>[AABB]	*	*>[AABB]	*	*>[AABB]	*>[AABB]	*>[AABB]	*>[AABB]	*>[AABB]	*>[AABB]
=1	=1	=1	=1	=1	=1	=1	=1	=1	=1	=1	=1	=1
*>A	*>A	*>A	*>A	*>A	*>A	*>A	*>A	*>A	*>A	*>A	*>A	*>A
*	*	*	*	*	*^	*	*	*	*	*	*	*
*	*	*2\right	*	*	*	*	*	*	*	*	*2\right	*2\right	*2\right
!	!	!	!	!	!	!	!	!	!	!	!LO:TX:a:t=problem:brak znaków przykluczowych, problem z ustaleniem stroju	!	!
!	!	!LO:TX:a:t=problem:brak oznaczenia tempa	!	!	!LO:TX:a:t=problem:4\right:global	!	!	!	!LO:TX:a:t=problem:4\right:global	!	!	!	!
!LO:TX:a:t=problem:8\right:global	!	!	!LO:TX:a:t=Presto	!	!LO:TX:a:t=Presto	!	!	!LO:TX:a:t=Presto	!LO:TX:a:t=Presto	!LO:TX:a:t=problem:brak znaków przykluczowych, problem z ustaleniem stroju	!LO:TX:a:t=Presto	!LO:TX:a:t=Presto	!LO:TX:a:t=Presto
*	*	*	*	*	*v	*v	*	*	*	*	*	*	*
*	*	*	*	*	*^	*	*	*	*	*	*	*
*	*	*tremolo	*	*	*	*	*	*	*	*	*	*	*
8B-\L	.	16b-\LL	8B-/L	.	4bb-/	4dd\	.	4B-/	4b-\	2B-/	2f\	2dd\	2bb-\
.	.	16b-\	.	.	.	.	.	.	.	.	.	.	.
8B-\	.	16b-\	8d/	.	.	.	.	.	.	.	.	.	.
.	.	16b-\	.	.	.	.	.	.	.	.	.	.	.
!	!	!	!	!	!LO:TX:a:t=problem:8\right:global	!	!	!	!	!	!	!	!
8B-\	.	16b-\	8f/	.	8ddd\L	4ryy	.	4r	4r	.	.	.	.
.	.	16b-\	.	.	.	.	.	.	.	.	.	.	.
8B-\J	.	16b-\	8d/J	.	8bb-\J	.	.	.	.	.	.	.	.
.	.	16b-\JJ	.	.	.	.	.	.	.	.	.	.	.
*	*	*	*	*	*v	*v	*	*	*	*	*	*	*
=2	=2	=2	=2	=2	=2	=2	=2	=2	=2	=2	=2	=2
*tremolo	*	*	*	*	*	*	*	*	*	*	*	*
8B-\L	.	16b-\LL	8B-/L	.	4ff\	.	4B-/	4b-\	2B-/	2f\	2dd\	2ff\
.	.	16b-\	.	.	.	.	.	.	.	.	.	.
8B-\	.	16b-\	8d/	.	.	.	.	.	.	.	.	.
.	.	16b-\	.	.	.	.	.	.	.	.	.	.
8B-\	.	16b-\	8f/	.	8bb-\L	.	4r	4r	.	.	.	.
.	.	16b-\	.	.	.	.	.	.	.	.	.	.
8B-\J	.	16b-\	8d/J	.	8ff\J	.	.	.	.	.	.	.
.	.	16b-\JJ	.	.	.	.	.	.	.	.	.	.
=3	=3	=3	=3	=3	=3	=3	=3	=3	=3	=3	=3	=3
!	!	!	!	!	!	!	!	!	!LO:TX:a:t=problem:4\right:global	!LO:TX:a:t=problem:4\right:global	!LO:TX:a:t=problem:4\right:global	!LO:TX:a:t=problem:4\right:global
8B-\L	.	16b-\LL	8B-/L	.	4gg\	.	4B-/	4b-\	4e-\	4g\	4ee-\	4gg\
.	.	16b-\	.	.	.	.	.	.	.	.	.	.
8B-\	.	16b-\	8e-/	.	.	.	.	.	.	.	.	.
.	.	16b-\	.	.	.	.	.	.	.	.	.	.
!	!	!	!	!	!	!	!	!	!	!	!LO:TX:a:t=problem:8\right:global	!LO:TX:a:t=problem:8\right:global
8B-\	.	16b-\	8g/	.	8bb-\L	.	4B-/	4b-\	4e-\	4g\	8gg\L	8bb-\L
.	.	16b-\	.	.	.	.	.	.	.	.	.	.
8B-\J	.	16b-\	8e-/J	.	8gg\J	.	.	.	.	.	8ee-\J	8gg\J
.	.	16b-\JJ	.	.	.	.	.	.	.	.	.	.
=4	=4	=4	=4	=4	=4	=4	=4	=4	=4	=4	=4	=4
!LO:TX:a:t=problem:4\right:global	!	!	!	!	!	!	!	!	!	!	!	!
4B-\	.	4b-\	4d/	.	4ff\	.	4B-/	4b-\	4B-/	4f\	4dd\	4ff\
4r	.	4r	4r	.	4r	.	4r	4r	4r	4r	4r	4r
!	!	!	!	!	!	!	!	!	!LO:LB:g=original	!	!	!
=5	=5	=5	=5	=5	=5	=5	=5	=5	=5	=5	=5	=5
!LO:N:vis=0	!	!LO:N:vis=0	!	!	!	!	!LO:N:vis=0	!LO:N:vis=0	!LO:N:vis=0	!LO:N:vis=0	!LO:N:vis=0	!LO:N:vis=0
1r	.	1r	8g/L	.	8ee-\L	.	1r	1r	1r	1r	1r	1r
.	.	.	8f/	.	8dd\	.	.	.	.	.	.	.
.	.	.	8e-/	.	8cc\	.	.	.	.	.	.	.
.	.	.	8d/J	.	8b-\J	.	.	.	.	.	.	.
=6	=6	=6	=6	=6	=6	=6	=6	=6	=6	=6	=6	=6
.	.	.	8e-/L	.	8gg\L	.	.	.	.	.	.	.
.	.	.	8d/	.	8ff\	.	.	.	.	.	.	.
.	.	.	8c/	.	8ee-\	.	.	.	.	.	.	.
.	.	.	8B-/J	.	8dd\J	.	.	.	.	.	.	.
=7	=7	=7	=7	=7	=7	=7	=7	=7	=7	=7	=7	=7
4F\	.	16f\LL	8A/L	.	8cc\L	.	4f/	4cc\	4f\	4f\	4cc\	4ee-\ 4gg
.	.	16f\	.	.	.	.	.	.	.	.	.	.
.	.	16f\	8c/	.	8ee-\	.	.	.	.	.	.	.
.	.	16f\	.	.	.	.	.	.	.	.	.	.
!	!	!	!	!	!	!	!LO:TX:a:t=problem:4\right:global	!	!	!	!	!
4B-\	.	16f\	8B-/	.	8dd\	.	4b-\	4dd\	4B-/	4f\	4b-\	4dd\
.	.	16f\	.	.	.	.	.	.	.	.	.	.
.	.	16f\	8d/J	.	8b-\J	.	.	.	.	.	.	.
.	.	16f\JJ	.	.	.	.	.	.	.	.	.	.
=8	=8	=8	=8	=8	=8	=8	=8	=8	=8	=8	=8	=8
4F\	.	4f\	8c/L	.	8a\L	.	4f/	4cc\	4f\	4f\	4a/	4cc\
.	.	.	8A/J	.	8cc\J	.	.	.	.	.	.	.
4r	.	4r	4A/	.	4ff\	.	4r	4r	4r	4r	4r	4r
=9	=9	=9	=9	=9	=9	=9	=9	=9	=9	=9	=9	=9
*	*	*	*	*	*^	*	*	*	*	*	*	*
8BB-/L	.	16b-\LL	8B-/L	.	4bb-/	4dd\	.	4B-/	4b-\	2B-/	2f\	2dd\	2bb-\
.	.	16b-\	.	.	.	.	.	.	.	.	.	.	.
8BB-/	.	16b-\	8d/	.	.	.	.	.	.	.	.	.	.
.	.	16b-\	.	.	.	.	.	.	.	.	.	.	.
8BB-/	.	16b-\	8f/	.	8ddd\L	4ryy	.	4r	4r	.	.	.	.
.	.	16b-\	.	.	.	.	.	.	.	.	.	.	.
8BB-/J	.	16b-\	8d/J	.	8bb-\J	.	.	.	.	.	.	.	.
.	.	16b-\JJ	.	.	.	.	.	.	.	.	.	.	.
*	*	*	*	*	*v	*v	*	*	*	*	*	*	*
=10	=10	=10	=10	=10	=10	=10	=10	=10	=10	=10	=10	=10
!	!	!	!LO:TX:a:t=problem:repetycja t. 9	!	!	!	!	!	!	!	!	!
8BB-/L	.	16b-\LL	8B-/Lyy	.	4ff\	.	4B-/	4b-\	2B-/	2f\	2dd\	2ff\
.	.	16b-\	.	.	.	.	.	.	.	.	.	.
8BB-/	.	16b-\	8d/yy	.	.	.	.	.	.	.	.	.
.	.	16b-\	.	.	.	.	.	.	.	.	.	.
8BB-/	.	16b-\	8f/yy	.	8bb-\L	.	4r	4r	.	.	.	.
.	.	16b-\	.	.	.	.	.	.	.	.	.	.
8BB-/J	.	16b-\	8d/Jyy	.	8ff\J	.	.	.	.	.	.	.
.	.	16b-\JJ	.	.	.	.	.	.	.	.	.	.
=11	=11	=11	=11	=11	=11	=11	=11	=11	=11	=11	=11	=11
8BB-/L	.	16b-\LL	8B-/L	.	4gg\	.	4B-/	4b-\	4e-\	4g\	4ee-\	4gg\
.	.	16b-\	.	.	.	.	.	.	.	.	.	.
8BB-/	.	16b-\	8e-/	.	.	.	.	.	.	.	.	.
.	.	16b-\	.	.	.	.	.	.	.	.	.	.
8BB-/	.	16b-\	8g/	.	8bb-\L	.	4B-/	4b-\	4e-\	4g\	8gg\L	8bb-\L
.	.	16b-\	.	.	.	.	.	.	.	.	.	.
8BB-/J	.	16b-\	8e-/J	.	8gg\J	.	.	.	.	.	8ee-\J	8gg\J
.	.	16b-\JJ	.	.	.	.	.	.	.	.	.	.
=12	=12	=12	=12	=12	=12	=12	=12	=12	=12	=12	=12	=12
4BB-/	.	4b-\	4d/	.	4ff\	.	4B-/	4b-\	4B-/	4f\	4dd\	4ff\
4r	.	4r	4r	.	4r	.	4r	4r	4r	4r	4r	4r
=13	=13	=13	=13	=13	=13	=13	=13	=13	=13	=13	=13	=13
!LO:N:vis=0	!	!LO:N:vis=0	!	!	!	!	!LO:N:vis=0	!LO:N:vis=0	!LO:N:vis=0	!LO:N:vis=0	!LO:N:vis=0	!LO:N:vis=0
1r	.	1r	8g/L	.	8ee-\L	.	1r	1r	1r	1r	1r	1r
.	.	.	8f/	.	8dd\	.	.	.	.	.	.	.
.	.	.	8e-/	.	8cc\	.	.	.	.	.	.	.
.	.	.	8d/J	.	8b-\J	.	.	.	.	.	.	.
!	!	!	!	!	!LO:LB:g=original	!	!	!	!	!	!	!
=14	=14	=14	=14	=14	=14	=14	=14	=14	=14	=14	=14	=14
.	.	.	8e-/L	.	8gg\L	.	.	.	.	.	.	.
.	.	.	8d/	.	8ff\	.	.	.	.	.	.	.
.	.	.	8c/	.	8ee-\	.	.	.	.	.	.	.
!	!	!	!	!	!LO:TX:a:t=problem:wymazany takt	!	!	!	!	!	!	!
.	.	.	8B-/J	.	8dd\J	.	.	.	.	.	.	.
!	!	!	!LO:LB:g=original	!	!	!	!	!	!	!	!	!
=15	=15	=15	=15	=15	=15	=15	=15	=15	=15	=15	=15	=15
!	!	!	!LO:TX:a:t=problem:mixed beam	!	!	!	!	!	!	!	!	!
4E-\	.	4e-\	8e-/L	.	8cc\L	.	4cc\	4cc\	4e-\	4g\	4ee-\	4gg\
!	!	!	!LO:TX:a:t=problem:8\right:global	!	!	!	!	!	!	!	!	!
.	.	.	8ee-\J	.	8gg\J	.	.	.	.	.	.	.
!	!	!	!LO:TX:a:t=problem:16\right:global	!	!LO:TX:a:t=problem:16\right:global	!	!	!	!	!	!LO:TX:a:t=problem:16\right:global	!LO:TX:a:t=problem:16\right:global
4F\	.	4f\	16dd\LL	.	16ff\LL	.	4f/	4cc\	4f\	4f\	16dd\LL	16ff\LL
.	.	.	16cc\	.	16ee-\	.	.	.	.	.	16cc\	16ee-\
.	.	.	16b-\	.	16dd\	.	.	.	.	.	16b-\	16dd\
!	!	!	!	!	!	!	!	!	!	!	!LO:TX:a:t=problem:niewyraźne oznaczenie na końcu linijki	!
.	.	.	16a\JJ	.	16cc\JJ	.	.	.	.	.	16a\JJ	16cc\JJ
!	!	!	!	!	!	!	!	!	!	!	!LO:LB:g=original	!
=16	=16	=16	=16	=16	=16	=16	=16	=16	=16	=16	=16	=16
4BB-/	.	4B-/	8b-\L	.	8b-/L	.	4d/	4b-\	4B-/	4f\	4b-\	4b-\
.	.	.	8f\J	.	8f/J	.	.	.	.	.	.	.
4r	.	4r	4d/	.	4d/	.	4r	4r	4r	4r	4r	4r
!	!	!	!	!	!	!	!LO:LB:g=original	!LO:LB:g=original	!	!	!	!LO:LB:g=original
=17:|!|:	=17:|!|:	=17:|!|:;	=17:|!|:	=17:|!|:	=17:|!|:	=17:|!|:	=17:|!|:	=17:|!|:	=17:|!|:	=17:|!|:	=17:|!|:	=17:|!|:
*>B	*>B	*>B	*>B	*>B	*>B	*>B	*>B	*>B	*>B	*>B	*>B	*>B
!	!	!	!	!	!	!LO:DY:t=f.	!LO:N:vis=00	!LO:N:vis=00	!LO:N:vis=00	!LO:N:vis=00	!LO:N:vis=00	!LO:N:vis=00
4B-\	.	4f\	8dd\L	.	8dd\L	f	0r	0r	0r	0r	0r	0r
.	.	.	8ff\	.	8ff\	.	.	.	.	.	.	.
4r	.	4r	8bb-\	.	8bb-\	.	.	.	.	.	.	.
.	.	.	8ddd\J	.	8ddd\J	.	.	.	.	.	.	.
!LO:LB:g=original	!	!	!	!	!	!	!	!	!	!	!	!
=18	=18	=18	=18	=18	=18	=18	=18	=18	=18	=18	=18	=18
!	!LO:DY:t=f.	!	!	!	!	!	!	!	!	!	!	!
4A\	f	4f\	8ccc\L	.	8ccc\L	.	.	.	.	.	.	.
.	.	.	8aa\	.	8aa\	.	.	.	.	.	.	.
4r	.	4r	8gg\	.	8gg\	.	.	.	.	.	.	.
.	.	.	8ff\J	.	8ff\J	.	.	.	.	.	.	.
=19	=19	=19	=19	=19	=19	=19	=19	=19	=19	=19	=19	=19
4En\	.	4g\	8cc\L	.	8cc\L	.	.	.	.	.	.	.
.	.	.	8een\	.	8een\	.	.	.	.	.	.	.
4C/	.	4en\	8gg\	.	8gg\	.	.	.	.	.	.	.
.	.	.	8bb-\J	.	8bb-\J	.	.	.	.	.	.	.
=20	=20	=20	=20	=20	=20	=20	=20	=20	=20	=20	=20	=20
4F\	.	4f\	8bb-\L	.	8bb-\L	.	.	.	.	.	.	.
.	.	.	8aa\	.	8aa\	.	.	.	.	.	.	.
4r	.	4r	8gg\	.	8gg\	.	.	.	.	.	.	.
.	.	.	8ff\J	.	8ff\J	.	.	.	.	.	.	.
!	!	!LO:LB:g=original	!	!	!	!	!	!	!	!	!	!
=21	=21	=21	=21	=21	=21	=21	=21	=21	=21	=21	=21	=21
!	!	!	!LO:TX:a:t=problem:4\right:global	!	!	!	!LO:N:vis=00	!LO:N:vis=00	!LO:N:vis=00	!LO:N:vis=00	!LO:N:vis=00	!LO:N:vis=00
8B-\L	.	8b-\L	4dd\	.	4dd\	.	0r	0r	0r	0r	0r	0r
8A\	.	8a\	.	.	.	.	.	.	.	.	.	.
8B-\	.	8b-\	4ddd\	.	4ddd\	.	.	.	.	.	.	.
8G\J	.	8g\J	.	.	.	.	.	.	.	.	.	.
=22	=22	=22	=22	=22	=22	=22	=22	=22	=22	=22	=22	=22
8A\L	.	8a\L	4cc\	.	4cc\	.	.	.	.	.	.	.
8G\	.	8g\	.	.	.	.	.	.	.	.	.	.
8A\	.	8a\	4ccc\	.	4ccc\	.	.	.	.	.	.	.
8F\J	.	8f\J	.	.	.	.	.	.	.	.	.	.
=23	=23	=23	=23	=23	=23	=23	=23	=23	=23	=23	=23	=23
8B-\L	.	8b-\L	4ddd\	.	4ddd\	.	.	.	.	.	.	.
8G\	.	8g\	.	.	.	.	.	.	.	.	.	.
8A\	.	8a\	4ff\	.	4ff\	.	.	.	.	.	.	.
8Bn\J	.	8bn\J	.	.	.	.	.	.	.	.	.	.
=24	=24	=24	=24	=24	=24	=24	=24	=24	=24	=24	=24	=24
!LO:TX:a:t=problem:mixed beam	!	!LO:TX:a:t=problem:mixed beam	!	!	!	!	!	!	!	!	!	!
8c\L	.	8cc\L	4een\	.	4een\	.	.	.	.	.	.	.
8C/J	.	8c/J	.	.	.	.	.	.	.	.	.	.
4C/	.	4c/	4r	.	4r	.	.	.	.	.	.	.
=25	=25	=25	=25	=25	=25	=25	=25	=25	=25	=25	=25	=25
!LO:N:vis=00	!	!	!	!	!LO:TX:a:t=problem:32\right:global	!	!LO:N:vis=00	!LO:N:vis=00	!LO:N:vis=00	!LO:N:vis=00	!LO:N:vis=00	!LO:N:vis=00
0r	.	8en\L	8g\L	.	32ccc\LLL	.	0r	0r	0r	0r	0r	0r
.	.	.	.	.	32bbn\JJ	.	.	.	.	.	.	.
!	!	!	!	!	!LO:N:vis=32.	!	!	!	!	!	!	!
.	.	.	.	.	8.ccc\J	.	.	.	.	.	.	.
.	.	8f\	8a\	.	.	.	.	.	.	.	.	.
.	.	8g\	8b-\	.	4r	.	.	.	.	.	.	.
.	.	8e\J	8g\J	.	.	.	.	.	.	.	.	.
!	!	!	!	!	!LO:LB:g=original	!	!	!	!	!	!	!
=26	=26	=26	=26	=26	=26	=26	=26	=26	=26	=26	=26	=26
.	.	8f\L	8a\L	.	32ccc\LLL	.	.	.	.	.	.	.
!	!	!	!	!	!LO:TX:a:t=SIC:s=32bbn	!	!	!	!	!	!	!
.	.	.	.	.	32bb-\JJ	.	.	.	.	.	.	.
.	.	.	.	.	8.ccc\J	.	.	.	.	.	.	.
.	.	8g\	8b-\	.	.	.	.	.	.	.	.	.
.	.	8a\	8cc\	.	4r	.	.	.	.	.	.	.
.	.	8f\J	8a\J	.	.	.	.	.	.	.	.	.
=27	=27	=27	=27	=27	=27	=27	=27	=27	=27	=27	=27	=27
!	!	!	!LO:TX:a:t=problem:repetycja tt. 25-26	!	!LO:TX:a:t=problem:repetycja tt. 25-26	!	!	!	!	!	!	!
.	.	8en\L	8g\Lyy	.	32ccc\LLLyy	.	.	.	.	.	.	.
.	.	.	.	.	32bbn\JJyy	.	.	.	.	.	.	.
!	!	!	!	!	!LO:N:vis=32.	!	!	!	!	!	!	!
.	.	.	.	.	8.ccc\Jyy	.	.	.	.	.	.	.
.	.	8f\	8a\yy	.	.	.	.	.	.	.	.	.
.	.	8g\	8b-\yy	.	4ryy	.	.	.	.	.	.	.
.	.	8e\J	8g\Jyy	.	.	.	.	.	.	.	.	.
=28	=28	=28	=28	=28	=28	=28	=28	=28	=28	=28	=28	=28
.	.	8f\L	8a\Lyy	.	32ccc\LLLyy	.	.	.	.	.	.	.
!	!	!	!	!	!LO:TX:a:t=SIC:s=32bbn	!	!	!	!	!	!	!
.	.	.	.	.	32bb-\JJyy	.	.	.	.	.	.	.
.	.	.	.	.	8.ccc\Jyy	.	.	.	.	.	.	.
.	.	8g\	8b-\yy	.	.	.	.	.	.	.	.	.
.	.	8a\	8cc\yy	.	4ryy	.	.	.	.	.	.	.
.	.	8f\J	8a\Jyy	.	.	.	.	.	.	.	.	.
=29	=29	=29	=29	=29	=29	=29	=29	=29	=29	=29	=29	=29
!	!	!	!	!	!	!	!LO:N:vis=00	!LO:N:vis=00	!LO:N:vis=00	!LO:N:vis=00	!LO:N:vis=00	!LO:N:vis=00
4BB-/	.	4b-\	8b-\L	.	8ddd\L	.	0r	0r	0r	0r	0r	0r
.	.	.	8dd\	.	8dd\	.	.	.	.	.	.	.
4B-\	.	4B-/	8een\	.	8een\	.	.	.	.	.	.	.
.	.	.	8cc\J	.	8cc\J	.	.	.	.	.	.	.
!	!	!	!LO:LB:g=original	!	!	!	!	!	!	!	!	!
=30	=30	=30	=30	=30	=30	=30	=30	=30	=30	=30	=30	=30
4A\	.	4A/	8ff\L	.	8ff\L	.	.	.	.	.	.	.
.	.	.	8cc\J	.	8cc\J	.	.	.	.	.	.	.
4d\	.	4d\	8a/L	.	8a/L	.	.	.	.	.	.	.
.	.	.	8f/J	.	8f/J	.	.	.	.	.	.	.
=31	=31	=31	=31	=31	=31	=31	=31	=31	=31	=31	=31	=31
4B-\	.	4B-\	8dd\L	.	8dd\L	.	.	.	.	.	.	.
.	.	.	8b-\J	.	8b-\J	.	.	.	.	.	.	.
4c\	.	4c\	8g/L	.	8g/L	.	.	.	.	.	.	.
.	.	.	8en/J	.	8en/J	.	.	.	.	.	.	.
=32	=32	=32	=32	=32	=32	=32	=32	=32	=32	=32	=32	=32
4F\	.	4A/	4f/	.	4f/	.	.	.	.	.	.	.
4r	.	4r	4r	.	4r	.	.	.	.	.	.	.
=33	=33	=33	=33	=33	=33	=33	=33	=33	=33	=33	=33	=33
*	*	*	*	*	*^	*	*	*	*	*	*	*
!	!LO:DY:t=f.	!	!	!LO:DY:t=f.	!	!	!	!	!	!	!	!	!
8B-\L	f	16b-\LL	8B-/L	f	4bb-/	4dd\	.	4B-/	4b-\	2B-/	2f\	2dd\	2bb-\
.	.	16b-\	.	.	.	.	.	.	.	.	.	.	.
8B-\	.	16b-\	8d/	.	.	.	.	.	.	.	.	.	.
.	.	16b-\	.	.	.	.	.	.	.	.	.	.	.
8B-\	.	16b-\	8f/	.	8ddd\L	4ryy	.	4r	4r	.	.	.	.
.	.	16b-\	.	.	.	.	.	.	.	.	.	.	.
8B-\J	.	16b-\	8d/J	.	8bb-\J	.	.	.	.	.	.	.	.
.	.	16b-\JJ	.	.	.	.	.	.	.	.	.	.	.
*	*	*	*	*	*v	*v	*	*	*	*	*	*	*
!	!	!	!	!	!	!	!	!	!	!LO:LB:g=original	!	!
=34	=34	=34	=34	=34	=34	=34	=34	=34	=34	=34	=34	=34
8B-\L	.	16b-\LL	8B-/L	.	4ff\	.	4B-/	4b-\	2B-/	2f\	2dd\	2ff\
.	.	16b-\	.	.	.	.	.	.	.	.	.	.
8B-\	.	16b-\	8d/	.	.	.	.	.	.	.	.	.
.	.	16b-\	.	.	.	.	.	.	.	.	.	.
8B-\	.	16b-\	8f/	.	8bb-\L	.	4r	4r	.	.	.	.
.	.	16b-\	.	.	.	.	.	.	.	.	.	.
8B-\J	.	16b-\	8d/J	.	8ff\J	.	.	.	.	.	.	.
.	.	16b-\JJ	.	.	.	.	.	.	.	.	.	.
=35	=35	=35	=35	=35	=35	=35	=35	=35	=35	=35	=35	=35
8B-\L	.	16b-\LL	8B-/L	.	4gg\	.	4B-/	4b-\	4e-\	4g\	4ee-\	4gg\
.	.	16b-\	.	.	.	.	.	.	.	.	.	.
8B-\	.	16b-\	8e-/	.	.	.	.	.	.	.	.	.
.	.	16b-\	.	.	.	.	.	.	.	.	.	.
8B-\	.	16b-\	8g/	.	8bb-\L	.	4B-/	4b-\	4e-\	4g\	8gg\L	8bb-\L
.	.	16b-\	.	.	.	.	.	.	.	.	.	.
8B-\J	.	16b-\	8e-/J	.	8gg\J	.	.	.	.	.	8ee-\J	8gg\J
.	.	16b-\JJ	.	.	.	.	.	.	.	.	.	.
!	!	!LO:LB:g=original	!	!	!	!	!	!	!	!	!	!
=36	=36	=36	=36	=36	=36	=36	=36	=36	=36	=36	=36	=36
4B-\	.	4b-\	4d/	.	4ff\	.	4B-/	4b-\	4B-/	4f\	4dd\	4ff\
4r	.	4r	4r	.	4r	.	4r	4r	4r	4r	4r	4r
=37	=37	=37	=37	=37	=37	=37	=37	=37	=37	=37	=37	=37
!	!	!	!	!	!	!	!	!	!LO:TX:a:t=2	!LO:N:vis=0	!LO:N:vis=0	!LO:N:vis=0
!LO:N:vis=0	!	!LO:N:vis=0	!	!	!	!	!LO:N:vis=0	!LO:N:vis=0	!LO:N:vis=0	!	!	!
1r	.	1r	8g/L	.	8ee-\L	.	1r	1r	1r	1r	1r	1r
.	.	.	8f/	.	8dd\	.	.	.	.	.	.	.
.	.	.	8e-/	.	8cc\	.	.	.	.	.	.	.
.	.	.	8d/J	.	8b-\J	.	.	.	.	.	.	.
=38	=38	=38	=38	=38	=38	=38	=38	=38	=38	=38	=38	=38
.	.	.	8e-/L	.	8gg\L	.	.	.	.	.	.	.
.	.	.	8d/	.	8ff\	.	.	.	.	.	.	.
.	.	.	8c/	.	8ee-\	.	.	.	.	.	.	.
.	.	.	8B-/J	.	8dd\J	.	.	.	.	.	.	.
!	!	!	!	!	!	!	!	!	!LO:LB:g=original	!	!	!
=39	=39	=39	=39	=39	=39	=39	=39	=39	=39	=39	=39	=39
4F\	.	16f\LL	8A/L	.	8cc\L	.	4f/	4cc\	4f\	4f\	4cc\	4ee-\
.	.	16f\	.	.	.	.	.	.	.	.	.	.
.	.	16f\	8c/	.	8ee-\	.	.	.	.	.	.	.
.	.	16f\	.	.	.	.	.	.	.	.	.	.
4B-\	.	16f\	8B-/	.	8dd\	.	4b-\	4dd\	4B-/	4f\	4b-\	4dd\
.	.	16f\	.	.	.	.	.	.	.	.	.	.
.	.	16f\	8d/J	.	8cc\J	.	.	.	.	.	.	.
.	.	16f\JJ	.	.	.	.	.	.	.	.	.	.
=40	=40	=40	=40	=40	=40	=40	=40	=40	=40	=40	=40	=40
4F\	.	4f\	8c/L	.	8a\L	.	4f/	4cc\	4f\	4f\	4a/	4cc\
.	.	.	8A/J	.	8cc\J	.	.	.	.	.	.	.
4r	.	4r	4A/	.	4ff\	.	4r	4r	4r	4r	4r	4r
!	!	!	!	!	!LO:LB:g=original	!	!	!	!	!	!	!
=41	=41	=41	=41	=41	=41	=41	=41	=41	=41	=41	=41	=41
*	*	*	*	*	*^	*	*	*	*	*	*	*
8BB-/L	.	16b-\LL	8B-/L	.	4bb-/	4dd\	.	4B-/	4b-\	2B-/	2f\	2dd\	2bb-\
.	.	16b-\	.	.	.	.	.	.	.	.	.	.	.
8BB-/	.	16b-\	8d/	.	.	.	.	.	.	.	.	.	.
.	.	16b-\	.	.	.	.	.	.	.	.	.	.	.
8BB-/	.	16b-\	8f/	.	8ddd\L	4ryy	.	4r	4r	.	.	.	.
.	.	16b-\	.	.	.	.	.	.	.	.	.	.	.
8BB-/J	.	16b-\	8d/J	.	8bb-\J	.	.	.	.	.	.	.	.
.	.	16b-\JJ	.	.	.	.	.	.	.	.	.	.	.
*	*	*	*	*	*v	*v	*	*	*	*	*	*	*
=42	=42	=42	=42	=42	=42	=42	=42	=42	=42	=42	=42	=42
!	!	!LO:TX:a:t=problem:repetycja t. 41	!	!	!	!	!	!	!	!	!	!
8BB-/L	.	16b-\yyLL	8B-/L	.	4ff\	.	4B-/	4b-\	2B-/	2f\	2dd\	2ff\
.	.	16b-\yy	.	.	.	.	.	.	.	.	.	.
8BB-/	.	16b-\yy	8d/	.	.	.	.	.	.	.	.	.
.	.	16b-\yy	.	.	.	.	.	.	.	.	.	.
8BB-/	.	16b-\yy	8f/	.	8bb-\L	.	4r	4r	.	.	.	.
.	.	16b-\yy	.	.	.	.	.	.	.	.	.	.
8BB-/J	.	16b-\yy	8d/J	.	8ff\J	.	.	.	.	.	.	.
.	.	16b-\yyJJ	.	.	.	.	.	.	.	.	.	.
=43	=43	=43	=43	=43	=43	=43	=43	=43	=43	=43	=43	=43
8BB-/L	.	16b-\LL	8B-/L	.	4gg\	.	4B-/	4b-\	4e-\	4g\	4ee-\	4gg\
.	.	16b-\	.	.	.	.	.	.	.	.	.	.
8BB-/	.	16b-\	8e-/	.	.	.	.	.	.	.	.	.
.	.	16b-\	.	.	.	.	.	.	.	.	.	.
8BB-/	.	16b-\	8g/	.	8bb-\L	.	4B-/	4b-\	4e-\	4g\	8gg\L	8bb-\L
.	.	16b-\	.	.	.	.	.	.	.	.	.	.
8BB-/J	.	16b-\	8e-/J	.	8gg\J	.	.	.	.	.	8ee-\J	8gg\J
.	.	16b-\JJ	.	.	.	.	.	.	.	.	.	.
=44	=44	=44	=44	=44	=44	=44	=44	=44	=44	=44	=44	=44
4BB-/	.	4b-\	4d/	.	4ff\	.	4B-/	4b-\	4B-/	4f\	4dd\	4ff\
4r	.	4r	4r	.	4r	.	4r	4r	4r	4r	4r	4r
!	!	!	!	!	!	!	!	!	!	!	!LO:LB:g=original	!
!	!	!	!LO:LB:g=original	!	!	!	!	!	!	!	!	!
=45	=45	=45	=45	=45	=45	=45	=45	=45	=45	=45	=45	=45
!LO:N:vis=0	!	!LO:N:vis=0	!	!	!	!	!LO:N:vis=0	!LO:N:vis=0	!LO:N:vis=0	!LO:N:vis=0	!LO:N:vis=0	!LO:N:vis=00
1r	.	1r	8g/L	.	8ee-\L	.	1r	1r	1r	1r	1r	1r
.	.	.	8f/	.	8dd\	.	.	.	.	.	.	.
.	.	.	8e-/	.	8cc\	.	.	.	.	.	.	.
.	.	.	8d/J	.	8b-\J	.	.	.	.	.	.	.
=46	=46	=46	=46	=46	=46	=46	=46	=46	=46	=46	=46	=46
.	.	.	8e-/L	.	8gg\L	.	.	.	.	.	.	.
.	.	.	8d/	.	8ff\	.	.	.	.	.	.	.
.	.	.	8c/	.	8ee-\	.	.	.	.	.	.	.
.	.	.	8B-/J	.	8dd\J	.	.	.	.	.	.	.
=47	=47	=47	=47	=47	=47	=47	=47	=47	=47	=47	=47	=47
!	!	!	!LO:TX:a:t=problem:mixed beam	!	!	!	!	!	!	!	!	!
4E-\	.	4e-\	8e-/L	.	8cc\L	.	4cc\	4cc\	4e-\	4g\	4ee-\	4gg\
.	.	.	8ee-\J	.	8gg\J	.	.	.	.	.	.	.
4F\	.	4f\	16dd\LL	.	16ff\LL	.	4f/	4cc\	4f\	4f\	16dd\LL	16ff\LL
.	.	.	16cc\	.	16ee-\	.	.	.	.	.	16cc\	16ee-\
.	.	.	16b-\	.	16dd\	.	.	.	.	.	16b-\	16dd\
.	.	.	16a\JJ	.	16cc\JJ	.	.	.	.	.	16a\JJ	16cc\JJ
=48	=48	=48	=48	=48	=48	=48	=48	=48	=48	=48	=48	=48
4BB-/	.	4B-/	4b-\	.	4b-/	.	4d/	4b-\	4B-/	4f\	4b-/	4b-\
4r	.	4r	4r	.	4r	.	4r	4r	4r	4r	4r	4r
=49	=49	=49	=49	=49	=49	=49	=49	=49	=49	=49	=49	=49
!	!	!	!	!LO:DY:t=p.	!	!	!LO:TX:a:t=problem:repetycja tt. 17-48	!LO:TX:a:t=problem:repetycja tt. 17-48	!LO:TX:a:t=problem:repetycja tt. 17-48	!LO:TX:a:t=problem:repetycja tt. 17-48	!LO:N:vis=00	!LO:N:vis=00
!LO:N:vis=00	!	!	!	!	!	!	!LO:N:vis=00	!LO:N:vis=00	!LO:N:vis=00	!LO:N:vis=00	!	!
0r	.	8B-`\L	8b-`\L	p	4ddd\	.	0ryy	0ryy	0ryy	0ryy	0r	0r
.	.	8A`\	8a`\	.	.	.	.	.	.	.	.	.
.	.	8B-`\	8b-`\	.	4gg`\	.	.	.	.	.	.	.
.	.	8c`\J	8cc`\J	.	.	.	.	.	.	.	.	.
=50	=50	=50	=50	=50	=50	=50	=50	=50	=50	=50	=50	=50
.	.	(8d\L	(8dd\L	.	4ff#X`\	.	.	.	.	.	.	.
.	.	8e-\)	8ee-\)	.	.	.	.	.	.	.	.	.
.	.	8d`\	8dd`\	.	4r	.	.	.	.	.	.	.
.	.	8c`\J	8cc`\J	.	.	.	.	.	.	.	.	.
=51	=51	=51	=51	=51	=51	=51	=51	=51	=51	=51	=51	=51
!	!	!	!LO:TX:a:t=problem:repetycja tt. 49-50	!LO:DY:t=p.	!LO:TX:a:t=problem:repetycja tt.49-50	!	!	!	!	!	!	!
.	.	8B-`\L	8b-`\Lyy	p	4ddd\yy	.	.	.	.	.	.	.
.	.	8A`\	8a`\yy	.	.	.	.	.	.	.	.	.
.	.	8B-`\	8b-`\yy	.	4gg`\yy	.	.	.	.	.	.	.
.	.	8c`\J	8cc`\Jyy	.	.	.	.	.	.	.	.	.
=52	=52	=52	=52	=52	=52	=52	=52	=52	=52	=52	=52	=52
.	.	(8d\L	(8dd\Lyy	.	4ff#X`\yy	.	.	.	.	.	.	.
.	.	8e-\)	8ee-\)yy	.	.	.	.	.	.	.	.	.
.	.	8d`\	8dd`\yy	.	4ryy	.	.	.	.	.	.	.
.	.	8c`\J	8cc`\Jyy	.	.	.	.	.	.	.	.	.
=53	=53	=53	=53	=53	=53	=53	=53	=53	=53	=53	=53	=53
!LO:N:vis=00	!	!	!	!	!	!	!LO:N:vis=00	!LO:N:vis=00	!LO:N:vis=00	!LO:N:vis=00	!LO:N:vis=00	!LO:N:vis=00
0r	.	8B-\L	8b-\L	.	4ddd\	.	0ryy	0ryy	0ryy	0ryy	0r	0r
.	.	8d\	8dd\	.	.	.	.	.	.	.	.	.
.	.	8B-\	8b-\	.	4gg\	.	.	.	.	.	.	.
.	.	8d\J	8dd\J	.	.	.	.	.	.	.	.	.
=54	=54	=54	=54	=54	=54	=54	=54	=54	=54	=54	=54	=54
.	.	8A/L	8a\L	.	4ff#X\	.	.	.	.	.	.	.
.	.	8d/	8dd\	.	.	.	.	.	.	.	.	.
.	.	8G/	8g\	.	4aa\	.	.	.	.	.	.	.
.	.	8d/J	8dd\J	.	.	.	.	.	.	.	.	.
=55	=55	=55	=55	=55	=55	=55	=55	=55	=55	=55	=55	=55
.	.	8F#X/L	8f#X\L	.	32aa\LLL	.	.	.	.	.	.	.
.	.	.	.	.	32bb-\JJ	.	.	.	.	.	.	.
.	.	.	.	.	8.ccc\J	.	.	.	.	.	.	.
.	.	8d/	8dd\	.	.	.	.	.	.	.	.	.
.	.	8F#/	8g\	.	4bb-\	.	.	.	.	.	.	.
.	.	8d/J	8dd\J	.	.	.	.	.	.	.	.	.
!	!	!LO:LB:g=original	!	!	!	!	!	!	!	!	!	!
=56	=56	=56	=56	=56	=56	=56	=56	=56	=56	=56	=56	=56
.	.	8D/L	8d/L	.	4aa\	.	.	.	.	.	.	.
.	.	8F#X/	8f#X/	.	.	.	.	.	.	.	.	.
.	.	8A/	8a/	.	4r	.	.	.	.	.	.	.
.	.	8c/J	8cc/J	.	.	.	.	.	.	.	.	.
!	!	!	!	!	!LO:LB:g=original	!	!	!	!	!	!	!
=57	=57	=57	=57	=57	=57	=57	=57	=57	=57	=57	=57	=57
!LO:N:vis=00	!	!	!	!	!	!	!LO:N:vis=00	!LO:N:vis=00	!LO:N:vis=00	!LO:N:vis=00	!LO:N:vis=00	!LO:N:vis=00
0r	.	8B-/L	8b-\L	.	4ddd\	.	0ryy	0ryy	0ryy	0ryy	0r	0r
.	.	8A/	8a\	.	.	.	.	.	.	.	.	.
.	.	8B-/	8b-\	.	4gg\	.	.	.	.	.	.	.
.	.	8c/J	8cc\J	.	.	.	.	.	.	.	.	.
=58	=58	=58	=58	=58	=58	=58	=58	=58	=58	=58	=58	=58
.	.	8d\L	(8dd\L	.	4ff#X\	.	.	.	.	.	.	.
.	.	8e-\	8ee-\)	.	.	.	.	.	.	.	.	.
.	.	8d\	8dd`\	.	4r	.	.	.	.	.	.	.
.	.	8c\J	8cc`\J	.	.	.	.	.	.	.	.	.
=59	=59	=59	=59	=59	=59	=59	=59	=59	=59	=59	=59	=59
!	!	!	!LO:TX:a:t=problem:repetycja tt. 57-58	!	!LO:TX:a:t=problem:repetycja tt. 57-58	!	!	!	!	!	!	!
.	.	8B-/L	8b-\Lyy	.	4ddd\yy	.	.	.	.	.	.	.
.	.	8A/	8a\yy	.	.	.	.	.	.	.	.	.
.	.	8B-/	8b-\yy	.	4gg\yy	.	.	.	.	.	.	.
.	.	8c/J	8cc\Jyy	.	.	.	.	.	.	.	.	.
=60	=60	=60	=60	=60	=60	=60	=60	=60	=60	=60	=60	=60
.	.	8d\L	(8dd\Lyy	.	4ff#X\yy	.	.	.	.	.	.	.
.	.	8e-\	8ee-\)yy	.	.	.	.	.	.	.	.	.
.	.	8d\	8dd`\yy	.	4ryy	.	.	.	.	.	.	.
.	.	8c\J	8cc`\Jyy	.	.	.	.	.	.	.	.	.
=61	=61	=61	=61	=61	=61	=61	=61	=61	=61	=61	=61	=61
!LO:N:vis=00	!	!	!	!	!	!	!LO:N:vis=00	!LO:N:vis=00	!LO:N:vis=00	!LO:N:vis=00	!LO:N:vis=00	!LO:N:vis=00
0r	.	8B-\L	8b-\L	.	4ddd\	.	0ryy	0ryy	0ryy	0r	0r	0r
.	.	8d\	8dd\	.	.	.	.	.	.	.	.	.
.	.	8B-\	8b-\	.	4gg\	.	.	.	.	.	.	.
.	.	8d\J	8dd\J	.	.	.	.	.	.	.	.	.
!	!	!	!LO:LB:g=original	!	!	!	!	!	!	!	!	!
=62	=62	=62	=62	=62	=62	=62	=62	=62	=62	=62	=62	=62
.	.	8c\L	8cc\L	.	4ff#X\	.	.	.	.	.	.	.
.	.	8e-\	8ee-\	.	.	.	.	.	.	.	.	.
.	.	8B-\	8b-\	.	4gg\	.	.	.	.	.	.	.
.	.	8d\J	8ee-\J	.	.	.	.	.	.	.	.	.
=63	=63	=63	=63	=63	=63	=63	=63	=63	=63	=63	=63	=63
!	!	!LO:TX:a:t=problem:mixed beam	!LO:TX:a:t=problem:mixed beam	!	!	!	!	!	!	!	!	!
.	.	8c\L	8cc\L	.	32aa\LLL	.	.	.	.	.	.	.
.	.	.	.	.	32bb-\JJ	.	.	.	.	.	.	.
.	.	.	.	.	8.ccc\J	.	.	.	.	.	.	.
.	.	8A\	8a\	.	.	.	.	.	.	.	.	.
.	.	8d\	8dd\	.	4ff#X\	.	.	.	.	.	.	.
.	.	8D/J	8d/J	.	.	.	.	.	.	.	.	.
=64	=64	=64	=64	=64	=64	=64	=64	=64	=64	=64	=64	=64
.	.	4G/	4g/	.	4gg\	.	.	.	.	.	.	.
.	.	4r	4r	.	4r	.	.	.	.	.	.	.
!	!	!	!	!	!	!	!	!	!	!	!	!LO:LB:g=original
=65	=65	=65	=65	=65	=65	=65	=65	=65	=65	=65	=65	=65
*	*	*	*	*	*^	*	*	*	*	*	*	*
!	!	!	!	!LO:DY:t=f.	!	!	!LO:DY:t=f.	!	!	!	!	!	!
8B-\L	.	16b-\LL	8B-/L	f	4bb-/	4dd\	f	4B-/yy	4b-\yy	2B-/yy	2f\yy	2dd\	2bb-\
.	.	16b-\	.	.	.	.	.	.	.	.	.	.	.
!	!	!	!LO:TX:a:t=SIC:s=8d	!	!	!	!	!	!	!	!	!	!
8B-\	.	16b-\	8f/	.	.	.	.	.	.	.	.	.	.
.	.	16b-\	.	.	.	.	.	.	.	.	.	.	.
!	!	!	!LO:TX:a:t=SIC:s=8f	!	!	!	!	!	!	!	!	!	!
8B-\	.	16b-\	8a/	.	8ddd\L	4ryy	.	4ryy	4ryy	.	.	.	.
.	.	16b-\	.	.	.	.	.	.	.	.	.	.	.
!	!	!	!LO:TX:a:t=SIC:s=8d	!	!	!	!	!	!	!	!	!	!
8B-\J	.	16b-\	8f/J	.	8bb-\J	.	.	.	.	.	.	.	.
.	.	16b-\JJ	.	.	.	.	.	.	.	.	.	.	.
*	*	*	*	*	*v	*v	*	*	*	*	*	*	*
!	!	!	!	!	!	!	!	!	!	!LO:LB:g=original	!	!
=66	=66	=66	=66	=66	=66	=66	=66	=66	=66	=66	=66	=66
!	!	!	!LO:TX:a:t=problem:repetycja t. 65	!LO:DY:t=f.	!	!	!	!	!	!	!	!
8B-\L	.	16b-\LL	8B-/Lyy	f	4ff\	.	4B-/yy	4b-\yy	2B-/yy	2f\yy	2dd\	2ff\
.	.	16b-\	.	.	.	.	.	.	.	.	.	.
!	!	!	!LO:TX:a:t=SIC:s=8d	!	!	!	!	!	!	!	!	!
8B-\	.	16b-\	8f/yy	.	.	.	.	.	.	.	.	.
.	.	16b-\	.	.	.	.	.	.	.	.	.	.
!	!	!	!LO:TX:a:t=SIC:s=8f	!	!	!	!	!	!	!	!	!
8B-\	.	16b-\	8a/yy	.	8bb-\L	.	4ryy	4ryy	.	.	.	.
.	.	16b-\	.	.	.	.	.	.	.	.	.	.
!	!	!	!LO:TX:a:t=SIC:s=8d	!	!	!	!	!	!	!	!	!
8B-\J	.	16b-\	8f/Jyy	.	8ff\J	.	.	.	.	.	.	.
.	.	16b-\JJ	.	.	.	.	.	.	.	.	.	.
=67	=67	=67	=67	=67	=67	=67	=67	=67	=67	=67	=67	=67
8B-\L	.	16b-\LL	8B-/L	.	4gg\	.	4B-/yy	4b-\yy	4e-\yy	4g\yy	4ee-\	4gg\
.	.	16b-\	.	.	.	.	.	.	.	.	.	.
8B-\	.	16b-\	8e-/	.	.	.	.	.	.	.	.	.
.	.	16b-\	.	.	.	.	.	.	.	.	.	.
8B-\	.	16b-\	8g/	.	8bb-\L	.	4B-/yy	4b-\yy	4e-\yy	4g\yy	8gg\L	8bb-\L
.	.	16b-\	.	.	.	.	.	.	.	.	.	.
8B-\J	.	16b-\	8e-/J	.	8gg\J	.	.	.	.	.	8ee-\J	8gg\J
.	.	16b-\JJ	.	.	.	.	.	.	.	.	.	.
=68	=68	=68	=68	=68	=68	=68	=68	=68	=68	=68	=68	=68
4B-\	.	4b-\	4d/	.	4ff\	.	4B-/yy	4b-\yy	4B-/yy	4f\yy	4dd\	4ff\
4r	.	4r	4r	.	4r	.	4ryy	4ryy	4ryy	4ryy	4r	4r
=69	=69	=69	=69	=69	=69	=69	=69	=69	=69	=69	=69	=69
!	!	!	!	!	!	!	!	!	!LO:TX:a:t=2	!LO:N:vis=0	!LO:N:vis=0	!LO:N:vis=0
!LO:N:vis=0	!	!	!	!	!	!	!LO:N:vis=0	!LO:N:vis=0	!LO:N:vis=0	!	!	!
1r	.	8g\L	8g/L	.	8ee-\L	.	1ryy	1ryy	1ryy	1ryy	1r	1r
.	.	8f\	8f/	.	8dd\	.	.	.	.	.	.	.
.	.	8e-\	8e-/	.	8cc\	.	.	.	.	.	.	.
.	.	8d\J	8d/J	.	8b-\J	.	.	.	.	.	.	.
=70	=70	=70	=70	=70	=70	=70	=70	=70	=70	=70	=70	=70
.	.	8e-\L	8e-/L	.	8gg\L	.	.	.	.	.	.	.
.	.	8d\	8d/	.	8ff\	.	.	.	.	.	.	.
.	.	8c\	8c/	.	8ee-\	.	.	.	.	.	.	.
.	.	8B-\J	8B-/J	.	8dd\J	.	.	.	.	.	.	.
!LO:LB:g=original	!	!	!	!	!	!	!	!	!LO:LB:g=original	!	!	!
=71	=71	=71	=71	=71	=71	=71	=71	=71	=71	=71	=71	=71
4F\	.	16f\LL	8A/L	.	8cc\L	.	4f/yy	4cc\yy	4f\yy	4f\yy	4cc\	4ee-\
.	.	16f\	.	.	.	.	.	.	.	.	.	.
.	.	16f\	8c/	.	8ee-\	.	.	.	.	.	.	.
.	.	16f\	.	.	.	.	.	.	.	.	.	.
4B-\	.	16f\	8B-/	.	8dd\	.	4b-\yy	4dd\yy	4B-/yy	4f\yy	4b-\	4dd\
.	.	16f\	.	.	.	.	.	.	.	.	.	.
.	.	16f\	8d/J	.	8cc\J	.	.	.	.	.	.	.
.	.	16f\JJ	.	.	.	.	.	.	.	.	.	.
=72	=72	=72	=72	=72	=72	=72	=72	=72	=72	=72	=72	=72
4F\	.	4f\	8c/L	.	8a\L	.	4f/yy	4cc\yy	4f\yy	4f\yy	4a/	4cc\
.	.	.	8A/J	.	8cc\J	.	.	.	.	.	.	.
4r	.	4r	4A/	.	4ff\	.	4ryy	4ryy	4ryy	4ryy	4r	4r
!	!	!LO:LB:g=original	!	!	!LO:PB:g=original	!	!	!	!	!	!	!
=73	=73	=73	=73	=73	=73	=73	=73	=73	=73	=73	=73	=73
*	*	*	*	*	*^	*	*	*	*	*	*	*
8BB-/L	.	16b-\LL	8B-/L	.	4bb-/	4dd\	.	4B-/yy	4b-\yy	2B-/yy	2f\yy	2dd\	2bb-\
.	.	16b-\	.	.	.	.	.	.	.	.	.	.	.
8BB-/	.	16b-\	8d/	.	.	.	.	.	.	.	.	.	.
.	.	16b-\	.	.	.	.	.	.	.	.	.	.	.
8BB-/	.	16b-\	8f/	.	8ddd\L	4ryy	.	4ryy	4ryy	.	.	.	.
.	.	16b-\	.	.	.	.	.	.	.	.	.	.	.
8BB-/J	.	16b-\	8d/J	.	8bb-\J	.	.	.	.	.	.	.	.
.	.	16b-\JJ	.	.	.	.	.	.	.	.	.	.	.
*	*	*	*	*	*v	*v	*	*	*	*	*	*	*
=74	=74	=74	=74	=74	=74	=74	=74	=74	=74	=74	=74	=74
!	!	!	!LO:TX:a:t=problem:repetycja t. 73	!	!	!	!	!	!	!	!	!
8BB-/L	.	16b-\LL	8B-/Lyy	.	4ff\	.	4B-/yy	4b-\yy	2B-/yy	2f\yy	2dd\	2ff\
.	.	16b-\	.	.	.	.	.	.	.	.	.	.
8BB-/	.	16b-\	8d/yy	.	.	.	.	.	.	.	.	.
.	.	16b-\	.	.	.	.	.	.	.	.	.	.
8BB-/	.	16b-\	8f/yy	.	8bb-\L	.	4ryy	4ryy	.	.	.	.
.	.	16b-\	.	.	.	.	.	.	.	.	.	.
8BB-/J	.	16b-\	8d/Jyy	.	8ff\J	.	.	.	.	.	.	.
.	.	16b-\JJ	.	.	.	.	.	.	.	.	.	.
=75	=75	=75	=75	=75	=75	=75	=75	=75	=75	=75	=75	=75
8BB-/L	.	16b-\LL	8B-/L	.	4gg\	.	4B-/yy	4b-\yy	4e-\yy	4g\yy	4ee-\	4gg\
.	.	16b-\	.	.	.	.	.	.	.	.	.	.
8BB-/	.	16b-\	8e-/	.	.	.	.	.	.	.	.	.
.	.	16b-\	.	.	.	.	.	.	.	.	.	.
8BB-/	.	16b-\	8g/	.	8bb-\L	.	4B-/yy	4b-\yy	4e-\yy	4g\yy	8gg\L	8bb-\L
.	.	16b-\	.	.	.	.	.	.	.	.	.	.
8BB-/J	.	16b-\	8e-/J	.	8gg\J	.	.	.	.	.	8ee-\J	8gg\J
.	.	16b-\JJ	.	.	.	.	.	.	.	.	.	.
*	*	*Xtremolo	*	*	*	*	*	*	*	*	*	*
*Xtremolo	*	*	*	*	*	*	*	*	*	*	*	*
!	!	!	!	!	!	!	!	!	!	!	!LO:LB:g=original	!
=76	=76	=76	=76	=76	=76	=76	=76	=76	=76	=76	=76	=76
4BB-/	.	4b-\	4d/	.	4ff\	.	4B-/yy	4b-\yy	4B-/yy	4f\yy	4dd\	4ff\
4r	.	4r	4r	.	4r	.	4ryy	4ryy	4ryy	4ryy	4r	4r
=77	=77	=77	=77	=77	=77	=77	=77	=77	=77	=77	=77	=77
!	!	!	!	!	!	!	!LO:N:vis=0	!LO:N:vis=0	!LO:N:vis=0	!LO:N:vis=0	!	!
8G\L	.	8g\L	8g/L	.	8ee-\L	.	1ryy	1ryy	1ryy	1ryy	2b-\	8ee-\L
8F\	.	8f\	8f/	.	8dd\	.	.	.	.	.	.	8dd\
8E-\	.	8e-\	8e-/	.	8cc\	.	.	.	.	.	.	8cc\
8D\J	.	8d\J	8d/J	.	8b-\J	.	.	.	.	.	.	8b-\J
!	!	!	!LO:LB:g=original	!	!	!	!	!	!	!	!	!
=78	=78	=78	=78	=78	=78	=78	=78	=78	=78	=78	=78	=78
8E-\L	.	8e-\L	8e-/L	.	8gg\L	.	.	.	.	.	2b-\	8gg\L
8D\	.	8d\	8d/	.	8ff\	.	.	.	.	.	.	8ff\
8C\	.	8c\	8c/	.	8ee-\	.	.	.	.	.	.	8ee-\
8BB-\J	.	8B-\J	8B-/J	.	8dd\J	.	.	.	.	.	.	8dd\J
=79	=79	=79	=79	=79	=79	=79	=79	=79	=79	=79	=79	=79
!	!	!	!LO:TX:a:t=problem:mixed beam	!	!	!	!	!	!	!	!	!
4E-\	.	4e-\	8e-/L	.	8cc\L	.	4cc\yy	4cc\yy	4e-\yy	4g\yy	8g\L	8cc\L
.	.	.	8ee-\J	.	8gg\J	.	.	.	.	.	8ee-\J	8gg\J
4F\	.	4f\	16dd\LL	.	16ff\LL	.	4f/yy	4cc\yy	4f\yy	4f\yy	16dd\LL	16ff\LL
.	.	.	16cc\	.	16ee-\	.	.	.	.	.	16cc\	16ee-\
.	.	.	16b-\	.	16dd\	.	.	.	.	.	16b-\	16dd\
.	.	.	16a\JJ	.	16cc\JJ	.	.	.	.	.	16a\JJ	16cc\JJ
=80	=80	=80	=80	=80	=80	=80	=80	=80	=80	=80	=80	=80
4BB-/	.	4B-/	4b-\	.	4b-\	.	4d/yy	4b-\yy	4B-/yy	4f\yy	4b-/	4b-\
!	!	!	!	!	!	!	!LO:TX:a:t=problem:repetycja w obie strony	!LO:TX:a:t=problem:repetycja w obie strony	!	!	!	!
4r	.	4r	8r	.	8r	.	4ryy	4ryy	4ryy	4ryy	4r	4r
.	.	.	8f/	.	8f/	.	.	.	.	.	.	.
!	!	!	!	!	!	!	!	!	!	!	!	!LO:LB:g=original
=81	=81	=81	=81	=81	=81	=81	=81	=81	=81	=81	=81	=81
!	!	!	!LO:TX:a:t=problem:mixed beam	!	!LO:TX:a:t=problem:mixed beam	!	!	!	!LO:N:vis=00	!LO:N:vis=00	!LO:N:vis=00	!LO:N:vis=00
!	!	!	!	!	!	!	!LO:N:vis=00	!LO:N:vis=00	!LO:TX:a:t=problem:repetycje w obie strony (nie zgadza się to z innymi głosami)	!	!	!
4B-\	.	4b-\	8b-\L	.	8b-\L	.	0r	0r	0r	0r	0r	0r
.	.	.	8cc\	.	8cc\	.	.	.	.	.	.	.
4r	.	4r	8dd\	.	8dd\	.	.	.	.	.	.	.
.	.	.	8f#X/J	.	8f#X/J	.	.	.	.	.	.	.
=82	=82	=82	=82	=82	=82	=82	=82	=82	=82	=82	=82	=82
!LO:TX:a:t=SIC:s=4G	!	!	!	!	!	!	!	!	!	!	!	!
4F\	.	4g\	8g/L	.	8g/L	.	.	.	.	.	.	.
.	.	.	8a/	.	8a/	.	.	.	.	.	.	.
4r	.	4r	8b-/	.	8b-/	.	.	.	.	.	.	.
.	.	.	8d/J	.	8d/J	.	.	.	.	.	.	.
=83	=83	=83	=83	=83	=83	=83	=83	=83	=83	=83	=83	=83
8E-\L	.	8e-\L	8e-/L	.	8e-/L	.	.	.	.	.	.	.
8F\	.	8f\	8f/	.	8f/	.	.	.	.	.	.	.
8G\	.	8g\	8g/	.	8g/	.	.	.	.	.	.	.
8E-\J	.	8e-\J	8e-/J	.	8e-/J	.	.	.	.	.	.	.
=84	=84	=84	=84	=84	=84	=84	=84	=84	=84	=84	=84	=84
4C/	.	4c\	4c/	.	4c/	.	.	.	.	.	.	.
4r	.	4r	4r	.	4r	.	.	.	.	.	.	.
!	!	!	!	!	!LO:LB:g=original	!	!	!LO:LB:g=original	!	!	!	!
=85	=85	=85	=85	=85	=85	=85	=85	=85	=85	=85	=85	=85
*	*	*	*2\right	*	*2\right	*	*2\right	*2\right	*	*	*	*
*	*	*	*tremolo	*	*	*	*	*	*	*	*	*
*	*	*	*	*	*tremolo	*	*	*	*	*	*	*
!LO:TX:a:t=problem:mixed beam	!	!LO:TX:a:t=problem:mixed beam	!	!	!	!	!	!	!	!	!	!
8F\L	.	8f\L	16cc\LL	.	16aa\LL	.	2f/	2cc\	2f\	2f\	2cc\	2aa\
.	.	.	16cc\	.	16aa\	.	.	.	.	.	.	.
8FF/	.	8F/	16cc\	.	16aa\	.	.	.	.	.	.	.
.	.	.	16cc\	.	16aa\	.	.	.	.	.	.	.
8F\	.	8f\	16cc\	.	16aa\	.	.	.	.	.	.	.
.	.	.	16cc\	.	16aa\	.	.	.	.	.	.	.
8E-\J	.	8e-\J	16cc\	.	16aa\	.	.	.	.	.	.	.
.	.	.	16cc\JJ	.	16aa\JJ	.	.	.	.	.	.	.
!LO:LB:g=original	!	!	!	!	!	!	!	!	!	!	!	!
=86	=86	=86	=86	=86	=86	=86	=86	=86	=86	=86	=86	=86
8D\L	.	8d\L	16dd\LL	.	16bb-\LL	.	2b-\	2dd\	4B-/	4f\	2dd\	[<2bb-\
.	.	.	16dd\	.	16bb-\	.	.	.	.	.	.	.
8BB-\	.	8B-\	16dd\	.	16bb-\	.	.	.	.	.	.	.
.	.	.	16dd\	.	16bb-\	.	.	.	.	.	.	.
8G\	.	8g\	16dd\	.	16bb-\	.	.	.	4g\	4g\	.	.
.	.	.	16dd\	.	16bb-\	.	.	.	.	.	.	.
8F\J	.	8f\J	16dd\	.	16bb-\	.	.	.	.	.	.	.
.	.	.	16dd\JJ	.	16bb-\JJ	.	.	.	.	.	.	.
!	!	!	!	!	!	!	!	!	!	!LO:LB:g=original	!	!
=87	=87	=87	=87	=87	=87	=87	=87	=87	=87	=87	=87	=87
!LO:TX:a:t=problem:mixed beam	!	!LO:TX:a:t=problem:mixed beam	!	!	!	!	!	!	!	!	!	!
8E-\L	.	8e-\L	16cc\LL	.	16bb-\LL	.	4cc\	4cc\	4e-\	4g\	2cc\	4bb-\]
.	.	.	16cc\	.	16bb-\	.	.	.	.	.	.	.
8C\	.	8c\	16cc\	.	16bb-\	.	.	.	.	.	.	.
.	.	.	16cc\	.	16bb-\JJ	.	.	.	.	.	.	.
8F\	.	8f\	16cc\	.	16aa\LL	.	4f/	4cc\	4f\	4f\	.	4aa\
.	.	.	16cc\	.	16aa\	.	.	.	.	.	.	.
8FF/J	.	8F/J	16cc\	.	16aa\	.	.	.	.	.	.	.
.	.	.	16cc\JJ	.	16aa\JJ	.	.	.	.	.	.	.
=88	=88	=88	=88	=88	=88	=88	=88	=88	=88	=88	=88	=88
4BB-/	.	4B-/	4b-\	.	4bb-\	.	4d/	4b-\	4B-/	4f\	4dd\	4bb-\
!	!	!	!	!	!	!	!	!	!	!LO:TX:a:t=problem:znak repetycji w obie strony (nie zgadza się z innymi głosami)	!	!
8r	.	8r	8r	.	8r	.	4r	4r	4r	4r	8r	8r
8F\	.	8f\	8f/	.	8ff\	.	.	.	.	.	8f/	8ff\
!	!	!LO:LB:g=original	!	!	!	!	!	!	!	!	!	!
=89	=89	=89	=89	=89	=89	=89	=89	=89	=89	=89	=89	=89
!	!	!	!LO:TX:a:t=problem:mixed beam	!	!	!	!LO:N:vis=00	!LO:N:vis=00	!LO:N:vis=00	!LO:N:vis=00	!LO:TX:a:t=problem:mixed beam	!
8B-\L	.	8b-\L	8b-\L	.	8bb-\L	.	0r	0r	0r	0r	8b-\L	8bb-\L
8c\	.	8cc\	8cc\	.	8ccc\	.	.	.	.	.	8cc\	8ccc\
8d\	.	8dd\	8dd\	.	8ddd\	.	.	.	.	.	8dd\	8ddd\
8F#X\J	.	8f#X\J	8f#X/J	.	8ff#X\J	.	.	.	.	.	8f#X/J	8ff#X\J
=90	=90	=90	=90	=90	=90	=90	=90	=90	=90	=90	=90	=90
8G\L	.	8g\L	8g/L	.	8gg\L	.	.	.	.	.	8g/L	8gg\L
8A\	.	8a\	8a/	.	8aa\	.	.	.	.	.	8a/	8aa\
8B-\	.	8b-\	8b-/	.	8bb-\	.	.	.	.	.	8b-/	8bb-\
8D\J	.	8d\J	8d/J	.	8dd\J	.	.	.	.	.	8d/J	8dd\J
=91	=91	=91	=91	=91	=91	=91	=91	=91	=91	=91	=91	=91
8E-\L	.	8e-\L	8e-/L	.	8ee-\L	.	.	.	.	.	8e-/L	8ee-\L
8F\	.	8f\	8f/	.	8ff\	.	.	.	.	.	8f/	8ff\
8G\	.	8g\	8g/	.	8gg\	.	.	.	.	.	8g/	8gg\
8E-\J	.	8e-\J	8e-/J	.	8ee-\J	.	.	.	.	.	8e-/J	8ee-\J
!	!	!	!LO:LB:g=original	!	!	!	!	!	!	!	!LO:LB:g=original	!
=92	=92	=92	=92	=92	=92	=92	=92	=92	=92	=92	=92	=92
4C/	.	4c\	4c/	.	4cc\	.	.	.	.	.	4c/	4cc\
4r	.	4r	4r	.	4r	.	.	.	.	.	4r	4r
!	!	!	!	!	!	!	!	!	!LO:LB:g=original	!	!	!
=93	=93	=93	=93	=93	=93	=93	=93	=93	=93	=93	=93	=93
!LO:TX:a:t=problem:mixed beam	!	!LO:TX:a:t=problem:mixed beam	!	!	!	!	!	!	!	!	!	!
8F\L	.	8f\L	16cc\LL	.	16aa\LL	.	2f/	2cc\	2f\	2f\	2cc\	2aa\
.	.	.	16cc\	.	16aa\	.	.	.	.	.	.	.
8FF/	.	8F/	16cc\	.	16aa\	.	.	.	.	.	.	.
.	.	.	16cc\	.	16aa\	.	.	.	.	.	.	.
8F\	.	8f\	16cc\	.	16aa\	.	.	.	.	.	.	.
.	.	.	16cc\	.	16aa\	.	.	.	.	.	.	.
8E-\J	.	8d\J	16cc\	.	16aa\	.	.	.	.	.	.	.
.	.	.	16cc\JJ	.	16aa\JJ	.	.	.	.	.	.	.
=94	=94	=94	=94	=94	=94	=94	=94	=94	=94	=94	=94	=94
8D\L	.	8d\L	16dd\LL	.	16bb-\LL	.	2b-\	2dd\	4B-/	4f\	2dd\	[<2bb-\
.	.	.	16dd\	.	16bb-\	.	.	.	.	.	.	.
8BB-\	.	8B-\	16dd\	.	16bb-\	.	.	.	.	.	.	.
.	.	.	16dd\	.	16bb-\	.	.	.	.	.	.	.
8G\	.	8g\	16dd\	.	16bb-\	.	.	.	4g\	4g\	.	.
.	.	.	16dd\	.	16bb-\	.	.	.	.	.	.	.
8F\J	.	8f\J	16dd\	.	16bb-\	.	.	.	.	.	.	.
.	.	.	16dd\JJ	.	16bb-\JJ	.	.	.	.	.	.	.
=95	=95	=95	=95	=95	=95	=95	=95	=95	=95	=95	=95	=95
!	!	!LO:TX:a:t=problem:mixed beam	!	!	!	!	!	!	!	!	!	!
8E-\L	.	8e-\L	16cc\LL	.	16bb-\LL	.	4cc\	4cc\	4e-\	4g\	2cc\	4bb-\]
.	.	.	16cc\	.	16bb-\	.	.	.	.	.	.	.
8C\	.	8c\	16cc\	.	16bb-\	.	.	.	.	.	.	.
.	.	.	16cc\	.	16bb-\JJ	.	.	.	.	.	.	.
8F\	.	8f\	16cc\	.	16aa\LL	.	4f/	4cc\	4f\	4f\	.	4aa\
.	.	.	16cc\	.	16aa\	.	.	.	.	.	.	.
8FF\J	.	8F/J	16cc\	.	16aa\	.	.	.	.	.	.	.
.	.	.	16cc\JJ	.	16aa\JJ	.	.	.	.	.	.	.
*	*	*	*	*	*Xtremolo	*	*	*	*	*	*	*
*	*	*	*Xtremolo	*	*	*	*	*	*	*	*	*
=96	=96	=96	=96	=96	=96	=96	=96	=96	=96	=96	=96	=96
4BB-/	.	4B-/	8dd\L	.	4bb-\	.	4b-\	4dd\	4B-/	4f\	4dd\	4bb-\
.	.	.	8b-\	.	.	.	.	.	.	.	.	.
4r	.	4r	8dd\	.	8r	.	4r	4r	4r	4r	4r	4r
.	.	.	8ff\J	.	8ddd\	.	.	.	.	.	.	.
=97	=97	=97	=97	=97	=97	=97	=97	=97	=97	=97	=97	=97
4BB-/	.	4B-/	4dd\	.	8bb-\L	.	4dd\	4ff\	4B-/	4f\	4b-\	4dd\
.	.	.	.	.	8ff\	.	.	.	.	.	.	.
4r	.	4r	4d/ 4b- 4ff	.	8dd\	.	4b-\	4dd\	4B-/	4f\	4dd\	4ee-\
.	.	.	.	.	8ff\J	.	.	.	.	.	.	.
=98	=98	=98	=98	=98	=98	=98	=98	=98	=98	=98	=98	=98
4BB-/	.	4B-/	8dd\L	.	4bb-\	.	4b-\	4dd\	4B-/	4f\	4dd\	4bb-\
.	.	.	8b-\	.	.	.	.	.	.	.	.	.
4r	.	4r	8dd\	.	8r	.	4r	4r	4r	4r	4r	4r
.	.	.	8ff\J	.	8ddd\	.	.	.	.	.	.	.
!LO:LB:g=original	!	!	!	!	!LO:LB:g=original	!	!	!	!	!	!	!LO:LB:g=original
=99	=99	=99	=99	=99	=99	=99	=99	=99	=99	=99	=99	=99
4BB-/	.	4B-/	4dd\	.	8bb-\L	.	4dd\	4ff\	4B-/	4f\	4b-\	4dd\
.	.	.	.	.	8ff\	.	.	.	.	.	.	.
4r	.	4r	4d/ 4b- 4ff	.	8dd\	.	4b-\	4dd\	4B-/	4f\	4dd\	4ff\
.	.	.	.	.	8ff\J	.	.	.	.	.	.	.
=100	=100	=100	=100	=100	=100	=100	=100	=100	=100	=100	=100	=100
8BB-\L	.	8B-\L	4dd\	.	4bb-\	.	4b-\	4dd\	4B-/	4f\	4dd\	4bb-\
8D\	.	8d\	.	.	.	.	.	.	.	.	.	.
8F\	.	8f\	4r	.	4r	.	4r	4r	4r	4r	4r	4r
8D\J	.	8d\J	.	.	.	.	.	.	.	.	.	.
=101	=101	=101	=101	=101	=101	=101	=101	=101	=101	=101	=101	=101
!	!	!	!	!	!	!	!	!	!	!LO:TX:a:t=problem:8\right:global	!	!
8BB-\L	.	8B-\L	4B-/ 4f 4dd	.	4d/ 4b- 4bb-	.	2b-\	2dd\	8B-/L	8f\L	4dd\	4bb-\
8D\	.	8d\	.	.	.	.	.	.	8B-/	8f\	.	.
8F\	.	8f\	4B-/ 4f 4dd	.	4d/ 4b- 4bb-	.	.	.	8B-/	8f\	4dd\	4r
8D\J	.	8d\J	.	.	.	.	.	.	8B-/J	8f\J	.	.
=102	=102	=102	=102	=102	=102	=102	=102	=102	=102	=102	=102	=102
4BB-/	.	4B-/	4B-/ 4f 4dd	.	4d/ 4b- 4bb-	.	4b-\	4dd\	4B-/	4f\	4dd\	4bb-\
!	!	!LO:TX:a:t=problem:ozdobna kreska końcowa :||:	!	!	!	!	!	!	!	!	!	!
4r	.	4r	4r	.	4r	.	4r	4r	4r	4r	4r	4r
==	==	==	==	==	==	==	==	==	==	==	==	==
*-	*-	*-	*-	*-	*-	*-	*-	*-	*-	*-	*-	*-
!!!system-decoration: [(g1)][(g2)][(g3)]
!!!RDF**kern: >= above
!!!RDF*kern: <= below
!!!ENC: Anna Matuszewska
!!!END: 2020-08-26
